X:1
T:Make Me a Channel of Blessing
T:Make Me a Channel of Blessing
T:Harper Garcia Smyth
T:Harper Garcia Smyth, 1903
T:Public  Domain Courtesy of the Cyber Hymnal™
C:Harper Garcia Smyth
Z:Public  Domain
Z:Courtesy of the Cyber Hymnal™
%%score ( 1 2 ) ( 3 4 )
L:1/8
Q:1/4=90
M:6/8
K:Bb
V:1 treble 
V:2 treble 
V:3 bass 
V:4 bass 
V:1
 [DF]/[DF]/ | [DB]2 [DB] [DB][EA][FB] | [Gc]3 [EG]2 [EG]/[EG]/ | [EA]>[EA][EA] [EA][EG][EF] | %4
w: 1.~Is your|life a chan- nel of|bless- ing? Is the|love of God flow- ing through|
w: 2.~Is your|life a chan- nel of|bless- ing? Are you|burd- ened for those that are|
w: 3.~Is your|life a chan- nel of|bless- ing? Is it|a dai- ly tell- ing for|
w: 4.~We can-|not be chan- nels of|bless- ing If our|lives are not free from known|
 [DB]3- [DB]2 [DF]/[EF]/ | [FB]>[FB][FB] [FB][EA][DB] | [Ec]3 [EG]2 ([=EG]/[EG]/) | %7
w: you? * Are you|tell- ing the lost of the|Sav- ior? Are~you *|
w: lost? * Have you|urged up- on those who are|stray- ing, The *|
w: Him? * Have you|spok- en the word of sal-|va- tion To *|
w: sin; * We will|bar- ri- ers be and a|hind- rance To *|
 [EA]>[EA][EA] [EF][EG][EA] | B6 ||"^Refrain" [DF][DG][DA] [DB][Fd][Ec] | [EB][EA]>[EG] [EA]3 | %11
w: rea- dy His ser- vice to|do?|||
w: Sav- ior who died on the|cross?|Make me a chan- nel of|bless- ing to- day,|
w: those who are dy- ing in|sin?|||
w: those we are try- ing to|win.|||
 [EG][FA][FB] [DF][FB][FB] | [=Ed][Ec]>[EG] [_Ec]3 | [Fd][Fe][Fd] [Gc]<[EG]-[EG] | %14
w: |||
w: Make me a chan- nel of|bless- ing, I pray;|My life pos- sess- ing, *|
w: |||
w: |||
 [EA][EB][Ec] [DB]<[DF] z | [EG][FA][FB] F<!fermata![Fe][Fd] | [Gc][=EG][_EA] [DB]6 |] %17
w: |||
w: my ser- vice bless- ing,|Make me a chan- nel of|bless- ing to- day.|
w: |||
w: |||
V:2
 x | x6 | x6 | x6 | x6 | x6 | x6 | x6 | (D2 E D3) || x6 | x6 | x6 | x6 | x6 | x6 | x6 | x9 |] %17
V:3
 [B,,B,]/[B,,B,]/ | [B,,F,]2 [B,,F,] [B,,F,][C,F,][D,B,] | [E,B,]3 [E,B,]2 [C,B,]/[C,B,]/ | %3
w: ~ ~|~ ~ ~ ~ ~|~ ~ ~ ~|
 [F,C]>[F,C][F,C] [F,C][F,B,][F,A,] | [B,,B,]3- [B,,B,]2 [B,,B,]/[C,A,]/ | %5
w: ~ ~ ~ ~ ~ ~|~ * ~ ~|
 [D,B,]>[D,B,][D,B,] [D,B,][C,F,][B,,F,] | [E,G,]3 [E,B,]2 [C,C]/[C,C]/ | %7
w: ~ ~ ~ ~ ~ ~|~ ~ ~ ~|
 [F,C]>[F,C][F,C] [F,A,][F,B,][F,C] | (B,2 G, F,3) || [B,,B,][B,,B,][B,,B,] [B,,F,][B,,F,][B,,F,] | %10
w: ~ ~ ~ ~ ~ ~|~ * *||
 [C,F,][C,F,]>[C,F,] [F,C]3 | [F,B,][F,C][D,B,] [B,,B,][D,B,][D,B,] | [C,B,][C,G,]>[C,B,] [F,A,]3 | %13
w: |||
 [B,,B,][C,A,][D,B,] [E,B,]<[E,C]-[E,C] | [F,C][F,G,][F,A,] [B,,B,]<[B,,B,] z | %15
w: ||
 [E,B,][E,C][D,B,] [C,A,]<!fermata![C,A,][D,B,] | [E,B,][C,C][F,C] [B,,B,]6 |] %17
w: ||
V:4
 x | x6 | x6 | x6 | x6 | x6 | x6 | x6 | B,,6 || x6 | x6 | x6 | x6 | x6 | x6 | x6 | x9 |] %17

